school_project/img/icons/telegram.svg

<svg width="44" height="44" viewBox="0 0 44 44" fill="none" xmlns="http://www.w3.org/2000/svg">
<g clip-path="url(#clip0_826_4652)">
<g clip-path="url(#clip1_826_4652)">
<path fill-rule="evenodd" clip-rule="evenodd" d="M44 22C44 34.1503 34.1503 44 22 44C9.84974 44 0 34.1503 0 22C0 9.84974 9.84974 0 22 0C34.1503 0 44 9.84974 44 22ZM22.7884 16.2414C20.6486 17.1314 16.3719 18.9735 9.95847 21.7678C8.91703 22.1819 8.37147 22.5871 8.32181 22.9832C8.23787 23.6528 9.07631 23.9164 10.218 24.2754C10.3733 24.3242 10.5343 24.3748 10.6992 24.4285C11.8225 24.7936 13.3335 25.2208 14.119 25.2377C14.8316 25.2531 15.6268 24.9594 16.5048 24.3565C22.4971 20.3115 25.5904 18.267 25.7846 18.2229C25.9216 18.1918 26.1114 18.1527 26.2401 18.2671C26.3687 18.3814 26.3561 18.5979 26.3424 18.656C26.2594 19.0101 22.9682 22.0699 21.265 23.6533C20.7341 24.1469 20.3575 24.4971 20.2805 24.577C20.108 24.7561 19.9322 24.9256 19.7633 25.0885C18.7197 26.0945 17.9372 26.8489 19.8066 28.0808C20.705 28.6728 21.4239 29.1624 22.1411 29.6508C22.9243 30.1842 23.7055 30.7162 24.7163 31.3787C24.9738 31.5475 25.2197 31.7229 25.4593 31.8937C26.3708 32.5435 27.1897 33.1273 28.2014 33.0342C28.7893 32.9801 29.3965 32.4273 29.7049 30.7787C30.4337 26.8824 31.8663 18.4405 32.1974 14.9618C32.2264 14.657 32.1899 14.2669 32.1606 14.0957C32.1313 13.9245 32.0701 13.6805 31.8475 13.4999C31.5839 13.2861 31.177 13.2409 30.995 13.2442C30.1675 13.2587 28.898 13.7002 22.7884 16.2414Z" fill="#424242"/>
</g>
</g>
<defs>
<clipPath id="clip0_826_4652">
<rect width="44" height="44" fill="white"/>
</clipPath>
<clipPath id="clip1_826_4652">
<rect width="44" height="44" fill="white"/>
</clipPath>
</defs>
</svg>

<svg width="44" height="44" viewBox="0 0 44 44" fill="none" xmlns="http://www.w3.org/2000/svg"><g clip-path="url(#clip0_826_4652)"><g clip-path="url(#clip1_826_4652)"><path fill-rule="evenodd" clip-rule="evenodd" d="M44 22c0 12.15-9.85 22-22 22S0 34.15 0 22 9.85 0 22 0s22 9.85 22 22zm-21.212-5.759c-2.14.89-6.416 2.733-12.83 5.527-1.041.414-1.587.82-1.636 1.215-.084.67.754.933 1.896 1.292.155.05.316.1.481.154 1.123.365 2.635.792 3.42.809.713.015 1.508-.279 2.386-.881 5.992-4.046 9.085-6.09 9.28-6.134.137-.031.326-.07.455.044s.116.33.102.389c-.083.354-3.374 3.414-5.077 4.997-.53.494-.907.844-.985.924-.172.18-.348.349-.517.511-1.043 1.006-1.826 1.76.044 2.993a168.99 168.99 0 012.334 1.57c.783.533 1.565 1.065 2.575 1.728.258.168.504.344.743.515.912.65 1.73 1.233 2.742 1.14.588-.054 1.195-.607 1.504-2.255.729-3.897 2.161-12.338 2.492-15.817a3.88 3.88 0 00-.036-.866c-.03-.171-.09-.415-.314-.596-.263-.214-.67-.26-.852-.256-.828.015-2.097.456-8.207 2.997z" fill="#424242"/></g></g><defs><clipPath id="clip0_826_4652"><path fill="#fff" d="M0 0h44v44H0z"/></clipPath><clipPath id="clip1_826_4652"><path fill="#fff" d="M0 0h44v44H0z"/></clipPath></defs></svg>
